X:1
T:Admirable
T:José de Torres y Martinez Bravo [1665-1738]
T:Admirable
T:Aria
C:José de Torres y Martinez Bravo [1665-1738]
%%score 1 2
L:1/8
M:4/4
K:F
V:1 treble nm="Soprano" snm="S."
V:2 bass nm="Continuo" snm="Cont."
V:1
"^Sin compás (without metre)""^Despacio [Adagio]" G4 z2 B>c | dc d2 z2 A>B | c4- c>B A>G | %3
w: Ad- mi- *|ra- * ble, ad- mi-|ra- * * * *|
 ^FE D2 z2 B/A/ B/c/ | B2 A2 G4 || z2 GA B4- | B/d/c/B/ c/B/A/G/ A>G F2 | z2 AA B2- B/A/B/G/ | %8
w: * * ble sa- * cra- *|men- * to|de la glo-|* * * * * * * * * * ria|de la glo- * * * *|
 ^c2- c/=B/A/G/ F>E F>D | B>A GA F2 E>D | D8 || z BdB f2- f/_e/d/c/ | B>A B>A G2 A/B/c/d/ | %13
w: |* ria, dul- ce pre- * *|nda,|tu nom- bre se- * * * *||
 _e>d c>B A2 B/c/d/e/ | f>_e d>c B>A B B/e/ | dBFA B4 || z4 B3 c | d2 d2 D3 D | %18
w: |* * * * a a- la- ba- *|* * * * do.|En los|cie- los, y\_en la|
 B2 z/ d/c/d/ B/c/A/B/ G/B/A/G/ | A2 z/ d/c/d/ A/B/A/B/ F/A/G/F/ | G_e- e/d/c/B/ c>B A>G- | %21
w: tie- * * * * * * * * * * *|||
 G^F F2 z4 || B8 | A8 || z2 G>G A2 BB | BA B (3_e/d/c/ dB A>B | B4 z2 z D | D2 E>E ^FD d2- | %28
w: * * rra.|A-|men.|Y la pu- ra con-|* * * * * * * * cep- ci-|ón, Ma-|ria de gra- ci- a lle-|
 d2 cB c/G/c ^c>d | d8 || z2 FF B2 B/c/d/c/ | B/A/ B2 _A G>F _E2 | z2 B>B c2- c/B/c/d/ | %33
w: |na,|sin pe- ca- * * * *|* * * * * * do,|sin pe- ca- * * * *|
 c/B/ c2 B A>G F2 | z2 c2 _d4- | d/c/_d/B/ A>B B4 | z2 B2 d4- | d>c B>A G>^F GB/B/ | %38
w: * * * * * * do|o- ri-|* * * * * gi- nal,|por sie-|* * * * * * mpre, a la-|
 _e2- e>d c>B A>G | ^F4 z/ A/G/F/ G/B/A/G/ | A/c/B/A/ B/d/c/B/ c>B c2 | z c/_e/ (dc) d4- | %42
w: ba- * * * * * *||* * * * * * * * * * da,|a- la ba- * *|
 d/A/B/^F/ G/=F/_E/D/ _e4- | e/d/c/B/ A/G/F/_E/ DE/^F/ G>c | B2 A>G G4 || B8 | A16 |] %47
w: |* * * * * * * * * * * * da|se- * * a.|A-|men.|
V:2
 G,8 | D,8 | D,8 | D,4 G,,4 | D,,4 G,,4 || G,,8 |"^6" E,4 F,4 | F,4 G,4 |"^3""^x" A,4 D,4 | %9
w: |||||||||
 G,,4"^43""^x" A,,4 | D,,8 || B,,8 | D,4 _E,4- | E,4 F,4 | F,2 _E,2 z4 |"^6" F,2 F,,2 B,,4 || %16
w: |||||g? *||
 B,,8 | ^F,8 | G,8 |"^6" F,8 |"^76" _E,8 |"^43" D,8 || G,,3 A,, B,,3 C, | D,8 || G,4 F,2"^6" D,2 | %25
w: |||||||||
 _E,4 F,4 | B,,8 | B,,2 C,2"^x""^3" D,4 |"^76""^x" _E,8 |"^x" D,8 || B,,8 | B,,4 _E,4 | %32
w: |||||||
 _E,4"^6" =E,4 | E,4 F,4 | F,4 z2"^3" B,,2 |"^6" F,2 F,,2 B,,4 | B,,8 | B,,4 _E,4 |"^3" C,8 | %39
w: |||||||
"^3x" D,8 | D,8 |"^3x" D,4"^6" B,,4 | %42
w: |||
"^Source: \"Arte de canto llano\" by Francisco de Montanos, edited by José de Torres, 1734 edition." B,,4 C,4 | %43
w: |
 C,4 C,2 B,,>C, | D,2 D,,2 G,,4 || G,,8 | D,16 |] %47
w: ||||

